X: 24215
T: Lord McDonald's
R: reel
M: 4/4
K: Gmajor
DGBG DGBG|c2 Bc AGEG|DGBG AGBG|DEDC B,G, G,2|
DGBG dGBG|(3cdc Bc AGEG|~B3A GFGE|DEGA BGGA||
Bdd^c dBGB|defg aged|Bdd^c ~d3B|ABcA BGGA|
Bdd^c dBGB|defg aged|Bdef ~g3e|dBAc BGGB||
dgbg agbg|dgbg ageg|dgbg agbg|~d3c BGGB|
dgbg agbg|dgbg ageg|(3bag (3agf gedB|dega bgg2||
Bdd^c dBGB|defg aged|Bdd^c ~d3B|ABcA BGGA|
Bdd^c dBGB|defg aged|Bdef ~g3e|dBAc BGGB||

